X: 331
T: The Prince of Wales's Fancy
B: John Pringle "Collection of Reels Strathspeys & Jigs", 1801 p.33#1
Z: 2011 John Chambers <jc:trillian.mit.edu>
Q: "Slowish"
R: march, reel
M: 2/4
L: 1/8
K: Bb
V: 1
d/c/ |\
.B.F.B.F | (DF).F.F | (EG).G.G | e2~dc |\
.B.F.B.F | (DF).F.F | (Ge).c.A | B2HB :|
|: d/e/ |\
.f.d.e.f | gabg | fdcB | {=e}f2f(d/_e/) |\
fdef ga ba/g/ | (g/f/)(e/d/) (e/d/)(c/B/) | {=e}Hf3 :|
V: 2 clef=bass middle=d
   z | g2f2 | B2d2 | e2c2 | [f2A2]z2 | B2b2 | f2d2 | e2f2 | b2HB :|
|: z | B2B2 | e2e2 | B2=e2 | f3 z | d'bc'd' | e'f'g'e' | bd'c'=e' | Hf'3 :|

%%sep 2 1 500

